frontend/public/svg/logos/instagram.svg

<svg width="161" height="160" viewBox="0 0 161 160" fill="none" xmlns="http://www.w3.org/2000/svg">
<g clip-path="url(#clip0)">
<path d="M157.568 26.7961C155.234 7.62449 139.101 -0.071179 124.154 0.814218C115.283 1.33469 106.498 1.6118 96.0367 1.86843C86.5585 2.10077 76.8388 2.30031 68.2638 2.47621C55.9589 2.72956 43.2352 2.99201 30.6007 3.34118C16.0956 3.74286 4.39968 13.0864 2.15041 26.0635C1.24729 31.2722 1.221 36.5281 1.27679 42.3649C1.44022 59.41 1.68963 76.6334 1.93313 93.29L1.9594 95.0936C2.05567 101.794 2.15011 108.495 2.24287 115.197C2.25862 116.325 2.298 117.457 2.3387 118.589L2.34206 118.679C2.50709 121.483 2.47927 124.295 2.25873 127.095C1.47835 134.572 4.34063 142.545 9.91624 148.42C16.114 154.952 24.8977 158.272 34.6561 157.774C45.3045 157.223 56.1663 157.328 66.6702 157.429L67.4309 157.437C79.896 157.556 92.5725 157.873 104.848 158.181L111.037 158.336C112.08 158.399 113.114 158.555 114.127 158.805C114.659 158.918 115.191 159.029 115.72 159.121C115.796 159.134 115.874 159.141 115.951 159.141H122.667C122.733 159.14 122.799 159.136 122.864 159.127C124.206 158.93 125.555 158.751 126.899 158.575L127 158.562C130.014 158.168 133.13 157.763 136.168 157.103C149.271 154.257 160.372 140.666 160.409 127.427C160.418 124.308 160.429 121.188 160.442 118.068L160.448 116.501C160.513 99.3998 160.586 81.7161 160.218 64.3032C159.95 51.6405 159.058 39.0184 157.568 26.7961ZM150.283 126.505C150.323 136.73 141.404 146.304 129.978 148.3C121.223 149.829 112.274 149.309 103.618 148.808C100.405 148.622 97.0829 148.429 93.7815 148.342C90.0338 148.243 86.2166 148.05 82.5043 147.861L82.1762 147.844C80.5786 147.763 78.9798 147.683 77.3941 147.61H77.3206C73.2815 147.61 69.2424 147.606 65.2027 147.595C60.5145 147.587 55.7515 147.58 50.9687 147.58C44.6777 147.58 39.5059 147.593 34.6883 147.622H34.4763C27.4102 147.622 21.5813 145.526 17.6197 141.559C13.5005 137.435 11.351 131.274 11.4055 123.742C11.5328 106.032 11.4559 88.1023 11.3811 70.7618C11.3391 60.8619 11.2959 50.6251 11.2906 40.5103C11.192 34.685 12.5095 28.9228 15.1301 23.7192C18.102 18.0038 23.4105 14.9709 31.8353 14.1747C43.6573 13.059 53.1965 12.4511 61.8555 12.2628C86.8539 11.7154 106.092 11.5218 124.233 11.634C137.465 11.716 145.108 17.9407 147.599 30.6678C150.355 44.7725 150.316 59.2698 150.274 73.2973L150.271 74.4865C150.215 94.3801 150.218 110.908 150.282 126.505H150.283Z" fill="black"/>
<path d="M84.2265 42.5825C75.933 42.4276 68.5525 44.1132 62.2798 47.5708C54.7254 51.732 46.6787 57.3502 44.2706 67.4531C41.174 80.4414 42.5825 92.938 48.4567 104.596C52.6625 112.945 59.2554 118.082 67.5227 119.451C72.4695 120.315 77.4787 120.768 82.5003 120.807C84.0755 120.807 85.6383 120.752 87.1387 120.644C98.2695 119.841 107.111 115.379 113.418 107.379C123.183 94.9924 124.881 80.8102 118.466 65.2269C112.263 50.1567 100.397 42.3233 84.2265 42.5825ZM111.373 82.4038C111.421 99.3373 100.067 110.646 82.4452 111.208C77.9624 111.284 73.4842 110.893 69.0822 110.042C63.4481 109.03 59.1713 105.639 56.3681 99.9641C51.693 90.4938 50.5589 80.7052 52.9959 70.87C54.8737 63.292 60.4072 57.734 69.9118 53.878C73.4435 52.4579 77.2181 51.7367 81.0249 51.7543C84.3223 51.7698 87.6014 52.2527 90.7636 53.1884C103.243 56.8199 111.332 68.2873 111.373 82.4038Z" fill="black"/>
<path d="M126.944 26.0933H126.756C124.911 26.1395 123.154 26.8917 121.847 28.1949C120.541 29.4981 119.784 31.2532 119.733 33.0979C119.687 33.997 119.824 34.8959 120.136 35.7406C120.448 36.5853 120.927 37.3581 121.545 38.0124C122.19 38.6693 122.963 39.1885 123.815 39.5382C124.667 39.888 125.581 40.061 126.503 40.0471C128.319 39.9885 130.044 39.2335 131.319 37.9384C132.595 36.6434 133.324 34.9074 133.355 33.0899C133.414 29.463 130.418 26.1943 126.944 26.0933Z" fill="black"/>
</g>
<defs>
<clipPath id="clip0">
<rect width="160.146" height="158.834" fill="white" transform="translate(0.756714 0.708984)"/>
</clipPath>
</defs>
</svg>

<svg xmlns="http://www.w3.org/2000/svg" width="161" height="160" fill="none" viewBox="0 0 161 160"><g fill="#000" clip-path="url(#a)"><path d="M157.568 26.796C155.234 7.624 139.101-.07 124.154.814c-8.871.52-17.656.798-28.117 1.054-9.479.233-19.198.432-27.773.608-12.305.254-25.029.516-37.663.865C16.096 3.743 4.4 13.086 2.15 26.064c-.904 5.208-.93 10.464-.874 16.3.163 17.046.413 34.27.656 50.926l.026 1.804q.145 10.05.284 20.103c.016 1.128.055 2.26.096 3.392l.003.09a61 61 0 0 1-.083 8.416c-.78 7.477 2.082 15.45 7.657 21.325 6.198 6.532 14.982 9.852 24.74 9.354 10.648-.551 21.51-.446 32.014-.345l.76.008c12.466.119 25.143.436 37.418.744l6.189.155c1.043.063 2.077.219 3.09.469.532.113 1.064.224 1.593.316q.115.02.231.02h6.716q.1-.001.197-.014c1.342-.197 2.691-.376 4.035-.552l.101-.013c3.014-.394 6.13-.799 9.168-1.459 13.103-2.846 24.204-16.437 24.241-29.676q.013-4.679.033-9.359l.006-1.567c.065-17.101.138-34.785-.23-52.198-.268-12.662-1.16-25.285-2.65-37.507m-7.285 99.709c.04 10.225-8.879 19.799-20.305 21.795-8.755 1.529-17.704 1.009-26.36.508-3.213-.186-6.535-.379-9.836-.466-3.748-.099-7.565-.292-11.278-.481l-.328-.017c-1.597-.081-3.196-.161-4.782-.234h-.073q-6.06 0-12.118-.015c-4.689-.008-9.452-.015-14.234-.015-6.291 0-11.463.013-16.28.042h-.213c-7.066 0-12.895-2.096-16.856-6.063-4.12-4.124-6.269-10.285-6.215-17.817.128-17.71.05-35.64-.024-52.98-.042-9.9-.085-20.137-.09-30.252a36 36 0 0 1 3.84-16.79c2.971-5.716 8.28-8.75 16.704-9.545 11.822-1.116 21.362-1.724 30.02-1.912 24.999-.548 44.237-.741 62.378-.629 13.232.082 20.875 6.307 23.366 19.034 2.756 14.105 2.717 28.602 2.675 42.63l-.003 1.189a7431 7431 0 0 0 .011 52.018z"/><path d="M84.227 42.583c-8.294-.155-15.675 1.53-21.947 4.988-7.555 4.161-15.601 9.78-18.01 19.882-3.096 12.988-1.687 25.485 4.187 37.143 4.206 8.349 10.798 13.486 19.066 14.855a91 91 0 0 0 14.977 1.356 65 65 0 0 0 4.639-.163c11.13-.803 19.972-5.265 26.279-13.265 9.765-12.387 11.463-26.569 5.048-42.152-6.203-15.07-18.069-22.904-34.24-22.644m27.146 39.82c.048 16.934-11.306 28.243-28.928 28.805a64.6 64.6 0 0 1-13.363-1.166c-5.634-1.012-9.91-4.403-12.714-10.078-4.675-9.47-5.81-19.259-3.372-29.094 1.878-7.578 7.411-13.136 16.916-16.992a29.4 29.4 0 0 1 11.113-2.124c3.297.016 6.576.499 9.739 1.434 12.479 3.632 20.568 15.1 20.609 29.216m15.572-56.311h-.188a7.21 7.21 0 0 0-7.023 7.005 6.68 6.68 0 0 0 1.812 4.914 6.8 6.8 0 0 0 4.958 2.035 7.08 7.08 0 0 0 6.852-6.957c.059-3.627-2.937-6.896-6.411-6.997"/></g><defs><clipPath id="a"><path fill="#fff" d="M.757.709h160.146v158.834H.757z"/></clipPath></defs></svg>
